X: 1
T: Fingerpolka
O: Denmark
M: 2/4
L: 1/16
K: F
d2 \
| "G"e3d B3G | "D7"F2F2 F2d2 | e3d c3A | "G"G2G2 G2z2 |
| "G"gggg g4 | "C"eeee e4 | "D7"d2fe dcBA | "G"G2G2 G2 ||
|: D2 \
| "G"G2A2 B2c2 | dddd d2B2 | "D7"cccc c2A2 |1,3 "G"BBBB B2 :|2,4 "G"G6 :|
